apps/scalable/discord.svg

<svg id="svg50" width="256" height="256" style="isolation:isolate" version="1.1" viewBox="0 0 256 256" xmlns="http://www.w3.org/2000/svg">
 <defs id="defs13">
  <filter id="KNqcLUCB8vrdY65uvahBg1JEqyLEw8sm" x="-.042124" y="-.045133" width="1.0842" height="1.1078" color-interpolation-filters="sRGB">
   <feGaussianBlur id="feGaussianBlur2" in="SourceGraphic" stdDeviation="4.294"/>
   <feOffset id="feOffset4" dx="0" dy="4" result="pf_100_offsetBlur"/>
   <feFlood id="feFlood6" flood-opacity=".4"/>
   <feComposite id="feComposite8" in2="pf_100_offsetBlur" operator="in" result="pf_100_dropShadow"/>
   <feBlend id="feBlend10" in="SourceGraphic" in2="pf_100_dropShadow"/>
  </filter>
 </defs>
 <g id="g22" filter="url(#KNqcLUCB8vrdY65uvahBg1JEqyLEw8sm)">
  <linearGradient id="_lgradient_19" x2="0" y2="1" gradientTransform="matrix(244.65 0 0 228.34 5.807 12.075)" gradientUnits="userSpaceOnUse">
   <stop id="stop15" stop-color="#83a598" offset="0"/>
   <stop id="stop17" stop-color="#458588" offset="1"/>
  </linearGradient>
  <path id="path20" d="m165.82 12.075c74.055 0 84.639 10.557 84.639 84.544v59.251c0 73.986-10.584 84.543-84.639 84.543h-75.37c-74.056 0-84.639-10.557-84.639-84.543v-59.251c0-73.987 10.583-84.544 84.639-84.544h75.37z" fill="url(#_lgradient_19)"/>
 </g>
 <g id="g35" opacity=".4">
  <linearGradient id="_lgradient_20" x1=".517" x2=".517" y2="1" gradientTransform="matrix(244.65,0,0,228.34,5.68,11.95)" gradientUnits="userSpaceOnUse">
   <stop id="stop24" stop-color="#ebdbb2" offset="0"/>
   <stop id="stop26" stop-color="#ebdbb2" stop-opacity=".098" offset=".125"/>
   <stop id="stop28" stop-color="#282828" stop-opacity=".098" offset=".925"/>
   <stop id="stop30" stop-color="#282828" stop-opacity=".498" offset="1"/>
  </linearGradient>
  <path id="path33" d="m165.07 11.951c4.328-0.01 8.656 0.04 12.984 0.138 3.875 0.078 7.751 0.226 11.626 0.452 3.453 0.196 6.905 0.481 10.348 0.854 3.059 0.335 6.118 0.786 9.148 1.346 2.715 0.502 5.4 1.14 8.046 1.916 2.4 0.698 4.751 1.562 7.023 2.584 2.115 0.943 4.141 2.063 6.059 3.35 1.84 1.238 3.561 2.653 5.135 4.215 1.564 1.572 2.98 3.282 4.219 5.119 1.289 1.916 2.41 3.94 3.364 6.042 1.023 2.28 1.889 4.618 2.597 7.005 0.777 2.643 1.417 5.325 1.918 8.037 0.561 3.026 1.013 6.072 1.348 9.127 0.374 3.439 0.659 6.878 0.856 10.326 0.226 3.861 0.373 7.732 0.462 11.593 0.088 4.323 0.138 8.646 0.128 12.959v58.212c0.01 4.323-0.04 8.636-0.128 12.959-0.089 3.871-0.236 7.732-0.462 11.593-0.197 3.448-0.482 6.897-0.856 10.326-0.335 3.055-0.787 6.111-1.348 9.137-0.501 2.702-1.141 5.384-1.918 8.027-0.708 2.387-1.574 4.735-2.597 7.005-0.954 2.112-2.075 4.126-3.364 6.042-1.239 1.837-2.655 3.557-4.219 5.119-1.574 1.562-3.295 2.977-5.135 4.215-1.918 1.287-3.944 2.407-6.059 3.35-2.272 1.022-4.623 1.886-7.023 2.594-2.646 0.776-5.331 1.414-8.046 1.906-3.03 0.569-6.089 1.011-9.148 1.346-3.443 0.373-6.895 0.658-10.348 0.854-3.875 0.226-7.751 0.374-11.626 0.462-4.328 0.088-8.656 0.138-12.984 0.128h-74.126c-4.328 0.01-8.656-0.04-12.984-0.128-3.875-0.088-7.751-0.236-11.626-0.462-3.453-0.196-6.905-0.481-10.348-0.854-3.059-0.335-6.118-0.777-9.148-1.346-2.715-0.492-5.4-1.13-8.046-1.906-2.4-0.708-4.751-1.572-7.023-2.594-2.115-0.943-4.141-2.063-6.059-3.35-1.84-1.238-3.561-2.653-5.135-4.215-1.564-1.562-2.98-3.282-4.219-5.119-1.289-1.916-2.41-3.93-3.364-6.042-1.023-2.27-1.889-4.618-2.597-7.005-0.777-2.643-1.417-5.325-1.918-8.027-0.561-3.026-1.013-6.082-1.348-9.137-0.374-3.429-0.659-6.878-0.856-10.326-0.226-3.861-0.373-7.722-0.462-11.593-0.088-4.323-0.138-8.636-0.128-12.959v-58.212c-0.01-4.313 0.04-8.636 0.128-12.959 0.089-3.861 0.236-7.732 0.462-11.593 0.197-3.448 0.482-6.887 0.856-10.326 0.335-3.055 0.787-6.101 1.348-9.127 0.501-2.712 1.141-5.394 1.918-8.037 0.708-2.387 1.574-4.725 2.597-7.005 0.954-2.102 2.075-4.126 3.364-6.042 1.239-1.837 2.655-3.547 4.219-5.119 1.574-1.562 3.295-2.977 5.135-4.215 1.918-1.287 3.944-2.407 6.059-3.35 2.272-1.022 4.623-1.886 7.023-2.584 2.646-0.776 5.331-1.414 8.046-1.916 3.03-0.56 6.089-1.011 9.148-1.346 3.443-0.373 6.895-0.658 10.348-0.854 3.875-0.226 7.751-0.374 11.626-0.452 4.328-0.098 8.656-0.148 12.984-0.138h74.126zm0.01 4.009c4.298-0.01 8.597 0.039 12.895 0.127 3.827 0.089 7.653 0.236 11.479 0.452 3.384 0.197 6.767 0.472 10.131 0.845 2.971 0.315 5.932 0.747 8.863 1.297 2.577 0.472 5.134 1.081 7.653 1.818 2.223 0.648 4.396 1.454 6.501 2.397 1.909 0.855 3.738 1.867 5.469 3.026 1.623 1.091 3.138 2.338 4.525 3.724 1.387 1.385 2.636 2.898 3.738 4.519 1.16 1.729 2.174 3.547 3.029 5.443 0.945 2.112 1.751 4.284 2.4 6.494 0.748 2.515 1.348 5.06 1.83 7.634 0.541 2.928 0.974 5.875 1.298 8.842 0.374 3.36 0.65 6.73 0.846 10.11 0.217 3.822 0.374 7.634 0.453 11.456 0.088 4.293 0.137 8.577 0.137 12.87v58.212c0 4.293-0.049 8.577-0.137 12.87-0.079 3.822-0.236 7.644-0.453 11.456-0.196 3.38-0.472 6.75-0.846 10.12-0.324 2.957-0.757 5.904-1.298 8.832-0.482 2.574-1.082 5.119-1.83 7.634-0.649 2.22-1.455 4.382-2.4 6.494-0.855 1.896-1.869 3.724-3.029 5.443-1.102 1.631-2.351 3.144-3.738 4.529-1.387 1.376-2.902 2.623-4.525 3.714-1.731 1.159-3.56 2.171-5.469 3.026-2.105 0.953-4.278 1.749-6.501 2.397-2.519 0.737-5.076 1.346-7.653 1.818-2.931 0.55-5.892 0.982-8.863 1.306-3.364 0.364-6.747 0.649-10.131 0.836-3.826 0.216-7.652 0.373-11.479 0.452-4.298 0.098-8.597 0.137-12.895 0.137h-0.01-74.126-0.01c-4.298 0-8.597-0.039-12.895-0.137-3.827-0.079-7.653-0.236-11.479-0.452-3.384-0.187-6.767-0.472-10.131-0.836-2.971-0.324-5.932-0.756-8.863-1.306-2.577-0.472-5.134-1.081-7.653-1.818-2.223-0.648-4.396-1.444-6.501-2.397-1.909-0.855-3.738-1.867-5.469-3.026-1.623-1.091-3.138-2.338-4.525-3.714-1.387-1.385-2.636-2.898-3.738-4.529-1.16-1.719-2.174-3.547-3.029-5.443-0.945-2.112-1.751-4.274-2.4-6.494-0.748-2.515-1.348-5.06-1.83-7.634-0.541-2.928-0.974-5.875-1.298-8.832-0.374-3.37-0.649-6.74-0.846-10.12-0.217-3.812-0.374-7.634-0.453-11.456-0.088-4.293-0.137-8.577-0.137-12.87v-58.212c0-4.293 0.049-8.577 0.137-12.87 0.079-3.822 0.236-7.634 0.453-11.456 0.197-3.38 0.472-6.75 0.846-10.11 0.324-2.967 0.757-5.914 1.298-8.842 0.482-2.574 1.082-5.119 1.83-7.634 0.649-2.21 1.455-4.382 2.4-6.494 0.855-1.896 1.869-3.714 3.029-5.443 1.102-1.621 2.351-3.134 3.738-4.519 1.387-1.386 2.902-2.633 4.525-3.724 1.731-1.159 3.56-2.171 5.469-3.026 2.105-0.943 4.278-1.749 6.501-2.397 2.519-0.737 5.076-1.346 7.653-1.818 2.931-0.55 5.892-0.982 8.863-1.297 3.364-0.373 6.747-0.648 10.131-0.845 3.826-0.216 7.652-0.363 11.479-0.452 4.298-0.088 8.597-0.137 12.895-0.127h0.01 74.126 0.01z" fill="url(#_lgradient_20)" fill-rule="evenodd"/>
 </g>
 <g id="g48" transform="matrix(1.25 0 0 1.25 -32 -34.665)">
  <defs id="defs40">
   <filter id="MlZIJxASH8rLCVq6nXneoorEUiQVXsU7" x="-.071073" y="-.10069" width="1.1421" height="1.2014" color-interpolation-filters="sRGB">
    <feGaussianBlur id="feGaussianBlur37" stdDeviation="4.294"/>
   </filter>
  </defs>
  <g id="g44" filter="url(#MlZIJxASH8rLCVq6nXneoorEUiQVXsU7)" opacity=".4">
   <path id="path42" d="m116.7 78.956s-16.892-0.367-34.784 12.778-26.421 31.822-26.421 71.017c0 0 14.704 17.699 42.164 18.558 0 0 4.602-5.409 8.329-10.078-15.779-4.669-21.756-14.377-21.756-14.377 14.539 8.127 24.422 11.52 39.498 11.661 15.076-0.141 33.489-3.534 48.028-11.661 0 0-5.977 9.708-21.756 14.377 3.727 4.669 8.329 10.078 8.329 10.078 27.46-0.859 42.164-18.558 42.164-18.558 0-39.195-8.529-57.872-26.421-71.017s-34.784-12.778-34.784-12.778l-1.25 1.475c22.365 6.266 32.552 15.959 32.552 15.959-12.744-8.904-34.068-8.904-42.597-8.904s-29.853 0-42.597 8.904c0 0 10.187-9.693 32.552-15.959zm-10.029 42.647c7.149 0 12.919 6.65 12.795 14.927 0 8.277-5.646 14.926-12.795 14.926-7.023 0-12.794-6.649-12.794-14.926s5.646-14.927 12.794-14.927zm42.648 0c7.148 0 12.794 6.65 12.794 14.927s-5.771 14.926-12.794 14.926c-7.149 0-12.795-6.649-12.795-14.926-0.124-8.277 5.646-14.927 12.795-14.927z"/>
  </g>
  <path id="path46" d="m116.7 74.692s-16.892-0.368-34.784 12.777-26.421 31.822-26.421 71.017c0 0 14.704 17.699 42.164 18.559 0 0 4.602-5.41 8.329-10.079-15.779-4.669-21.756-14.377-21.756-14.377 14.539 8.128 24.422 11.52 39.498 11.662 15.076-0.142 33.489-3.534 48.028-11.662 0 0-5.977 9.708-21.756 14.377 3.727 4.669 8.329 10.079 8.329 10.079 27.46-0.86 42.164-18.559 42.164-18.559 0-39.195-8.529-57.872-26.421-71.017s-34.784-12.777-34.784-12.777l-1.25 1.474c22.365 6.267 32.552 15.959 32.552 15.959-12.744-8.904-34.068-8.904-42.597-8.904s-29.853 0-42.597 8.904c0 0 10.187-9.692 32.552-15.959zm-10.029 42.647c7.149 0 12.919 6.649 12.795 14.926 0 8.277-5.646 14.927-12.795 14.927-7.023 0-12.794-6.65-12.794-14.927s5.646-14.926 12.794-14.926zm42.648 0c7.148 0 12.794 6.649 12.794 14.926s-5.771 14.927-12.794 14.927c-7.149 0-12.795-6.65-12.795-14.927-0.124-8.277 5.646-14.926 12.795-14.926z" fill="#ebdbb2"/>
 </g>
</svg>

<svg xmlns="http://www.w3.org/2000/svg" style="isolation:isolate" width="256" height="256" viewBox="0 0 256 256">
 <defs>
  <filter id="KNqcLUCB8vrdY65uvahBg1JEqyLEw8sm" width="400%" height="400%" x="-200%" y="-200%" color-interpolation-filters="sRGB" filterUnits="objectBoundingBox">
   <feGaussianBlur xmlns="http://www.w3.org/2000/svg" in="SourceGraphic" stdDeviation="4.294"/>
   <feOffset xmlns="http://www.w3.org/2000/svg" dx="0" dy="4" result="pf_100_offsetBlur"/>
   <feFlood xmlns="http://www.w3.org/2000/svg" flood-opacity=".4"/>
   <feComposite xmlns="http://www.w3.org/2000/svg" in2="pf_100_offsetBlur" operator="in" result="pf_100_dropShadow"/>
   <feBlend xmlns="http://www.w3.org/2000/svg" in="SourceGraphic" in2="pf_100_dropShadow" mode="normal"/>
  </filter>
 </defs>
 <g filter="url(#KNqcLUCB8vrdY65uvahBg1JEqyLEw8sm)">
  <linearGradient id="_lgradient_19" x1="0" x2="0" y1="0" y2="1" gradientTransform="matrix(244.648,0,0,228.338,5.807,12.075)" gradientUnits="userSpaceOnUse">
   <stop offset="0%" style="stop-color:#83a598"/>
   <stop offset="100%" style="stop-color:#458588"/>
  </linearGradient>
  <path fill="url(#_lgradient_19)" d="M 165.816 12.075 C 239.871 12.075 250.455 22.632 250.455 96.619 L 250.455 155.87 C 250.455 229.856 239.871 240.413 165.816 240.413 L 90.446 240.413 C 16.39 240.413 5.807 229.856 5.807 155.87 L 5.807 96.619 C 5.807 22.632 16.39 12.075 90.446 12.075 L 165.816 12.075 Z"/>
 </g>
 <g opacity=".4">
  <linearGradient id="_lgradient_20" x1=".517" x2=".517" y1="0" y2="1" gradientTransform="matrix(244.65,0,0,228.34,5.68,11.95)" gradientUnits="userSpaceOnUse">
   <stop offset="0%" style="stop-color:#ebdbb2"/>
   <stop offset="12.5%" stop-opacity=".098" style="stop-color:#ebdbb2"/>
   <stop offset="92.5%" stop-opacity=".098" style="stop-color:#282828"/>
   <stop offset="100%" stop-opacity=".498" style="stop-color:#282828"/>
  </linearGradient>
  <path fill="url(#_lgradient_20)" fill-rule="evenodd" d="M 165.068 11.951 C 169.396 11.941 173.724 11.991 178.052 12.089 C 181.927 12.167 185.803 12.315 189.678 12.541 C 193.131 12.737 196.583 13.022 200.026 13.395 C 203.085 13.73 206.144 14.181 209.174 14.741 C 211.889 15.243 214.574 15.881 217.22 16.657 C 219.62 17.355 221.971 18.219 224.243 19.241 C 226.358 20.184 228.384 21.304 230.302 22.591 C 232.142 23.829 233.863 25.244 235.437 26.806 C 237.001 28.378 238.417 30.088 239.656 31.925 C 240.945 33.841 242.066 35.865 243.02 37.967 C 244.043 40.247 244.909 42.585 245.617 44.972 C 246.394 47.615 247.034 50.297 247.535 53.009 C 248.096 56.035 248.548 59.081 248.883 62.136 C 249.257 65.575 249.542 69.014 249.739 72.462 C 249.965 76.323 250.112 80.194 250.201 84.055 C 250.289 88.378 250.339 92.701 250.329 97.014 L 250.329 155.226 C 250.339 159.549 250.289 163.862 250.201 168.185 C 250.112 172.056 249.965 175.917 249.739 179.778 C 249.542 183.226 249.257 186.675 248.883 190.104 C 248.548 193.159 248.096 196.215 247.535 199.241 C 247.034 201.943 246.394 204.625 245.617 207.268 C 244.909 209.655 244.043 212.003 243.02 214.273 C 242.066 216.385 240.945 218.399 239.656 220.315 C 238.417 222.152 237.001 223.872 235.437 225.434 C 233.863 226.996 232.142 228.411 230.302 229.649 C 228.384 230.936 226.358 232.056 224.243 232.999 C 221.971 234.021 219.62 234.885 217.22 235.593 C 214.574 236.369 211.889 237.007 209.174 237.499 C 206.144 238.068 203.085 238.51 200.026 238.845 C 196.583 239.218 193.131 239.503 189.678 239.699 C 185.803 239.925 181.927 240.073 178.052 240.161 C 173.724 240.249 169.396 240.299 165.068 240.289 L 90.942 240.289 C 86.614 240.299 82.286 240.249 77.958 240.161 C 74.083 240.073 70.207 239.925 66.332 239.699 C 62.879 239.503 59.427 239.218 55.984 238.845 C 52.925 238.51 49.866 238.068 46.836 237.499 C 44.121 237.007 41.436 236.369 38.79 235.593 C 36.39 234.885 34.039 234.021 31.767 232.999 C 29.652 232.056 27.626 230.936 25.708 229.649 C 23.868 228.411 22.147 226.996 20.573 225.434 C 19.009 223.872 17.593 222.152 16.354 220.315 C 15.065 218.399 13.944 216.385 12.99 214.273 C 11.967 212.003 11.101 209.655 10.393 207.268 C 9.616 204.625 8.976 201.943 8.475 199.241 C 7.914 196.215 7.462 193.159 7.127 190.104 C 6.753 186.675 6.468 183.226 6.271 179.778 C 6.045 175.917 5.898 172.056 5.809 168.185 C 5.721 163.862 5.671 159.549 5.681 155.226 L 5.681 97.014 C 5.671 92.701 5.721 88.378 5.809 84.055 C 5.898 80.194 6.045 76.323 6.271 72.462 C 6.468 69.014 6.753 65.575 7.127 62.136 C 7.462 59.081 7.914 56.035 8.475 53.009 C 8.976 50.297 9.616 47.615 10.393 44.972 C 11.101 42.585 11.967 40.247 12.99 37.967 C 13.944 35.865 15.065 33.841 16.354 31.925 C 17.593 30.088 19.009 28.378 20.573 26.806 C 22.147 25.244 23.868 23.829 25.708 22.591 C 27.626 21.304 29.652 20.184 31.767 19.241 C 34.039 18.219 36.39 17.355 38.79 16.657 C 41.436 15.881 44.121 15.243 46.836 14.741 C 49.866 14.181 52.925 13.73 55.984 13.395 C 59.427 13.022 62.879 12.737 66.332 12.541 C 70.207 12.315 74.083 12.167 77.958 12.089 C 82.286 11.991 86.614 11.941 90.942 11.951 L 165.068 11.951 Z M 165.078 15.96 C 169.376 15.95 173.675 15.999 177.973 16.087 C 181.8 16.176 185.626 16.323 189.452 16.539 C 192.836 16.736 196.219 17.011 199.583 17.384 C 202.554 17.699 205.515 18.131 208.446 18.681 C 211.023 19.153 213.58 19.762 216.099 20.499 C 218.322 21.147 220.495 21.953 222.6 22.896 C 224.509 23.751 226.338 24.763 228.069 25.922 C 229.692 27.013 231.207 28.26 232.594 29.646 C 233.981 31.031 235.23 32.544 236.332 34.165 C 237.492 35.894 238.506 37.712 239.361 39.608 C 240.306 41.72 241.112 43.892 241.761 46.102 C 242.509 48.617 243.109 51.162 243.591 53.736 C 244.132 56.664 244.565 59.611 244.889 62.578 C 245.263 65.938 245.539 69.308 245.735 72.688 C 245.952 76.51 246.109 80.322 246.188 84.144 C 246.276 88.437 246.325 92.721 246.325 97.014 C 246.325 97.014 246.325 97.014 246.325 97.014 L 246.325 155.226 C 246.325 155.226 246.325 155.226 246.325 155.226 C 246.325 159.519 246.276 163.803 246.188 168.096 C 246.109 171.918 245.952 175.74 245.735 179.552 C 245.539 182.932 245.263 186.302 244.889 189.672 C 244.565 192.629 244.132 195.576 243.591 198.504 C 243.109 201.078 242.509 203.623 241.761 206.138 C 241.112 208.358 240.306 210.52 239.361 212.632 C 238.506 214.528 237.492 216.356 236.332 218.075 C 235.23 219.706 233.981 221.219 232.594 222.604 C 231.207 223.98 229.692 225.227 228.069 226.318 C 226.338 227.477 224.509 228.489 222.6 229.344 C 220.495 230.297 218.322 231.093 216.099 231.741 C 213.58 232.478 211.023 233.087 208.446 233.559 C 205.515 234.109 202.554 234.541 199.583 234.865 C 196.219 235.229 192.836 235.514 189.452 235.701 C 185.626 235.917 181.8 236.074 177.973 236.153 C 173.675 236.251 169.376 236.29 165.078 236.29 C 165.078 236.29 165.078 236.29 165.068 236.29 L 90.942 236.29 C 90.932 236.29 90.932 236.29 90.932 236.29 C 86.634 236.29 82.335 236.251 78.037 236.153 C 74.21 236.074 70.384 235.917 66.558 235.701 C 63.174 235.514 59.791 235.229 56.427 234.865 C 53.456 234.541 50.495 234.109 47.564 233.559 C 44.987 233.087 42.43 232.478 39.911 231.741 C 37.688 231.093 35.515 230.297 33.41 229.344 C 31.501 228.489 29.672 227.477 27.941 226.318 C 26.318 225.227 24.803 223.98 23.416 222.604 C 22.029 221.219 20.78 219.706 19.678 218.075 C 18.518 216.356 17.504 214.528 16.649 212.632 C 15.704 210.52 14.898 208.358 14.249 206.138 C 13.501 203.623 12.901 201.078 12.419 198.504 C 11.878 195.576 11.445 192.629 11.121 189.672 C 10.747 186.302 10.472 182.932 10.275 179.552 C 10.058 175.74 9.901 171.918 9.822 168.096 C 9.734 163.803 9.685 159.519 9.685 155.226 C 9.685 155.226 9.685 155.226 9.685 155.226 L 9.685 97.014 C 9.685 97.014 9.685 97.014 9.685 97.014 C 9.685 92.721 9.734 88.437 9.822 84.144 C 9.901 80.322 10.058 76.51 10.275 72.688 C 10.472 69.308 10.747 65.938 11.121 62.578 C 11.445 59.611 11.878 56.664 12.419 53.736 C 12.901 51.162 13.501 48.617 14.249 46.102 C 14.898 43.892 15.704 41.72 16.649 39.608 C 17.504 37.712 18.518 35.894 19.678 34.165 C 20.78 32.544 22.029 31.031 23.416 29.646 C 24.803 28.26 26.318 27.013 27.941 25.922 C 29.672 24.763 31.501 23.751 33.41 22.896 C 35.515 21.953 37.688 21.147 39.911 20.499 C 42.43 19.762 44.987 19.153 47.564 18.681 C 50.495 18.131 53.456 17.699 56.427 17.384 C 59.791 17.011 63.174 16.736 66.558 16.539 C 70.384 16.323 74.21 16.176 78.037 16.087 C 82.335 15.999 86.634 15.95 90.932 15.96 C 90.932 15.96 90.932 15.96 90.942 15.96 L 165.068 15.96 C 165.078 15.96 165.078 15.96 165.078 15.96 Z"/>
 </g>
 <g>
  <defs>
   <filter id="MlZIJxASH8rLCVq6nXneoorEUiQVXsU7" width="400%" height="400%" x="-200%" y="-200%" color-interpolation-filters="sRGB" filterUnits="objectBoundingBox">
    <feGaussianBlur xmlns="http://www.w3.org/2000/svg" stdDeviation="4.294"/>
   </filter>
  </defs>
  <g opacity=".4" filter="url(#MlZIJxASH8rLCVq6nXneoorEUiQVXsU7)">
   <path d="M 116.705 78.956 C 116.705 78.956 99.813 78.589 81.921 91.734 C 64.029 104.879 55.5 123.556 55.5 162.751 C 55.5 162.751 70.204 180.45 97.664 181.309 C 97.664 181.309 102.266 175.9 105.993 171.231 C 90.214 166.562 84.237 156.854 84.237 156.854 C 98.776 164.981 108.659 168.374 123.735 168.515 C 138.811 168.374 157.224 164.981 171.763 156.854 C 171.763 156.854 165.786 166.562 150.007 171.231 C 153.734 175.9 158.336 181.309 158.336 181.309 C 185.796 180.45 200.5 162.751 200.5 162.751 C 200.5 123.556 191.971 104.879 174.079 91.734 C 156.187 78.589 139.295 78.956 139.295 78.956 L 138.045 80.431 C 160.41 86.697 170.597 96.39 170.597 96.39 C 157.853 87.486 136.529 87.486 128 87.486 C 119.471 87.486 98.147 87.486 85.403 96.39 C 85.403 96.39 95.59 86.697 117.955 80.431 L 116.705 78.956 Z M 106.676 121.603 C 113.825 121.603 119.595 128.253 119.471 136.53 C 119.471 144.807 113.825 151.456 106.676 151.456 C 99.653 151.456 93.882 144.807 93.882 136.53 C 93.882 128.253 99.528 121.603 106.676 121.603 Z M 149.324 121.603 C 156.472 121.603 162.118 128.253 162.118 136.53 C 162.118 144.807 156.347 151.456 149.324 151.456 C 142.175 151.456 136.529 144.807 136.529 136.53 C 136.405 128.253 142.175 121.603 149.324 121.603 Z"/>
  </g>
  <path fill="#ebdbb2" d="M 116.705 74.692 C 116.705 74.692 99.813 74.324 81.921 87.469 C 64.029 100.614 55.5 119.291 55.5 158.486 C 55.5 158.486 70.204 176.185 97.664 177.045 C 97.664 177.045 102.266 171.635 105.993 166.966 C 90.214 162.297 84.237 152.589 84.237 152.589 C 98.776 160.717 108.659 164.109 123.735 164.251 C 138.811 164.109 157.224 160.717 171.763 152.589 C 171.763 152.589 165.786 162.297 150.007 166.966 C 153.734 171.635 158.336 177.045 158.336 177.045 C 185.796 176.185 200.5 158.486 200.5 158.486 C 200.5 119.291 191.971 100.614 174.079 87.469 C 156.187 74.324 139.295 74.692 139.295 74.692 L 138.045 76.166 C 160.41 82.433 170.597 92.125 170.597 92.125 C 157.853 83.221 136.529 83.221 128 83.221 C 119.471 83.221 98.147 83.221 85.403 92.125 C 85.403 92.125 95.59 82.433 117.955 76.166 L 116.705 74.692 Z M 106.676 117.339 C 113.825 117.339 119.595 123.988 119.471 132.265 C 119.471 140.542 113.825 147.192 106.676 147.192 C 99.653 147.192 93.882 140.542 93.882 132.265 C 93.882 123.988 99.528 117.339 106.676 117.339 Z M 149.324 117.339 C 156.472 117.339 162.118 123.988 162.118 132.265 C 162.118 140.542 156.347 147.192 149.324 147.192 C 142.175 147.192 136.529 140.542 136.529 132.265 C 136.405 123.988 142.175 117.339 149.324 117.339 Z"/>
 </g>
</svg>
